svg/fluentui-system-icons/ic_fluent_brightness_high_20_regular.svg

<svg width="20" height="20" viewBox="0 0 20 20" fill="none" xmlns="http://www.w3.org/2000/svg">
<path d="M10 2C10.2761 2 10.5 2.22386 10.5 2.5V3.5C10.5 3.77614 10.2761 4 10 4C9.72386 4 9.5 3.77614 9.5 3.5V2.5C9.5 2.22386 9.72386 2 10 2ZM10 14C12.2091 14 14 12.2091 14 10C14 7.79086 12.2091 6 10 6C7.79086 6 6 7.79086 6 10C6 12.2091 7.79086 14 10 14ZM10 13C8.34315 13 7 11.6569 7 10C7 8.34315 8.34315 7 10 7C11.6569 7 13 8.34315 13 10C13 11.6569 11.6569 13 10 13ZM17.5 10.5C17.7761 10.5 18 10.2761 18 10C18 9.72386 17.7761 9.5 17.5 9.5H16.5C16.2239 9.5 16 9.72386 16 10C16 10.2761 16.2239 10.5 16.5 10.5H17.5ZM10 16C10.2761 16 10.5 16.2239 10.5 16.5V17.5C10.5 17.7761 10.2761 18 10 18C9.72386 18 9.5 17.7761 9.5 17.5V16.5C9.5 16.2239 9.72386 16 10 16ZM3.5 10.5C3.77614 10.5 4 10.2761 4 10C4 9.72386 3.77614 9.5 3.5 9.5H2.46289C2.18675 9.5 1.96289 9.72386 1.96289 10C1.96289 10.2761 2.18675 10.5 2.46289 10.5H3.5ZM4.14645 4.14645C4.34171 3.95118 4.65829 3.95118 4.85355 4.14645L5.85355 5.14645C6.04882 5.34171 6.04882 5.65829 5.85355 5.85355C5.65829 6.04882 5.34171 6.04882 5.14645 5.85355L4.14645 4.85355C3.95118 4.65829 3.95118 4.34171 4.14645 4.14645ZM4.85355 15.8536C4.65829 16.0488 4.34171 16.0488 4.14645 15.8536C3.95118 15.6583 3.95118 15.3417 4.14645 15.1464L5.14645 14.1464C5.34171 13.9512 5.65829 13.9512 5.85355 14.1464C6.04882 14.3417 6.04882 14.6583 5.85355 14.8536L4.85355 15.8536ZM15.8536 4.14645C15.6583 3.95118 15.3417 3.95118 15.1464 4.14645L14.1464 5.14645C13.9512 5.34171 13.9512 5.65829 14.1464 5.85355C14.3417 6.04882 14.6583 6.04882 14.8536 5.85355L15.8536 4.85355C16.0488 4.65829 16.0488 4.34171 15.8536 4.14645ZM15.1464 15.8536C15.3417 16.0488 15.6583 16.0488 15.8536 15.8536C16.0488 15.6583 16.0488 15.3417 15.8536 15.1464L14.8536 14.1464C14.6583 13.9512 14.3417 13.9512 14.1464 14.1464C13.9512 14.3417 13.9512 14.6583 14.1464 14.8536L15.1464 15.8536Z" fill="#212121"/>
</svg>

<svg xmlns="http://www.w3.org/2000/svg" width="20" height="20"><path d="M10 2a.5.5 0 0 1 .5.5v1a.5.5 0 0 1-1 0v-1A.5.5 0 0 1 10 2Zm0 12a4 4 0 1 0 0-8 4 4 0 0 0 0 8Zm0-1a3 3 0 1 1 0-6 3 3 0 0 1 0 6Zm7.5-2.5a.5.5 0 0 0 0-1h-1a.5.5 0 0 0 0 1h1ZM10 16a.5.5 0 0 1 .5.5v1a.5.5 0 0 1-1 0v-1a.5.5 0 0 1 .5-.5Zm-6.5-5.5a.5.5 0 0 0 0-1H2.463a.5.5 0 0 0 0 1H3.5Zm.646-6.354a.5.5 0 0 1 .708 0l1 1a.5.5 0 1 1-.708.708l-1-1a.5.5 0 0 1 0-.708Zm.708 11.708a.5.5 0 0 1-.708-.708l1-1a.5.5 0 0 1 .708.708l-1 1Zm11-11.708a.5.5 0 0 0-.708 0l-1 1a.5.5 0 0 0 .708.708l1-1a.5.5 0 0 0 0-.708Zm-.708 11.708a.5.5 0 0 0 .708-.708l-1-1a.5.5 0 0 0-.708.708l1 1Z"/></svg>
